account-cog-outline.svg

<svg fill="currentColor" viewBox="0 0 24 24"><path d="M10 4a4 4 0 0 0-4 4 4 4 0 0 0 4 4 4 4 0 0 0 4-4 4 4 0 0 0-4-4m0 2a2 2 0 0 1 2 2 2 2 0 0 1-2 2 2 2 0 0 1-2-2 2 2 0 0 1 2-2m7 6q-.24 0-.24.24l-.26 1.26c-.22.18-.54.34-.78.5l-1.28-.5c-.08 0-.24 0-.32.1l-.96 1.76c-.08.08-.08.24.08.32l1.04.82v1l-1.04.82c-.08.08-.16.24-.08.32l.96 1.76c.08.1.24.1.32.1l1.28-.5c.24.16.56.32.78.5l.26 1.26q0 .24.24.24h2c.08 0 .24-.08.24-.24l.16-1.26c.32-.18.64-.34.88-.5l1.22.5c.14 0 .3 0 .3-.1l1.04-1.76c.08-.08 0-.24-.08-.32l-1.04-.82v-1l1.04-.82c.08-.08.16-.24.08-.32L21.8 13.6c0-.1-.16-.1-.3-.1l-1.22.5c-.24-.16-.56-.32-.88-.5l-.16-1.26c0-.16-.16-.24-.24-.24zm-7 1c-2.67 0-8 1.33-8 4v3h9.67c-.28-.59-.48-1.23-.58-1.9H3.9V17c0-.64 3.13-2.1 6.1-2.1.43 0 .87.04 1.3.1.2-.64.47-1.24.82-1.79-.78-.13-1.52-.21-2.12-.21m8.04 2.5c.8 0 1.46.66 1.46 1.54 0 .8-.66 1.46-1.46 1.46-.88 0-1.54-.66-1.54-1.46 0-.88.66-1.54 1.54-1.54"/></svg>

<svg  viewBox="0 0 24 24" fill="currentColor"><path  d="M10 4A4 4 0 0 0 6 8A4 4 0 0 0 10 12A4 4 0 0 0 14 8A4 4 0 0 0 10 4M10 6A2 2 0 0 1 12 8A2 2 0 0 1 10 10A2 2 0 0 1 8 8A2 2 0 0 1 10 6M17 12C16.84 12 16.76 12.08 16.76 12.24L16.5 13.5C16.28 13.68 15.96 13.84 15.72 14L14.44 13.5C14.36 13.5 14.2 13.5 14.12 13.6L13.16 15.36C13.08 15.44 13.08 15.6 13.24 15.68L14.28 16.5V17.5L13.24 18.32C13.16 18.4 13.08 18.56 13.16 18.64L14.12 20.4C14.2 20.5 14.36 20.5 14.44 20.5L15.72 20C15.96 20.16 16.28 20.32 16.5 20.5L16.76 21.76C16.76 21.92 16.84 22 17 22H19C19.08 22 19.24 21.92 19.24 21.76L19.4 20.5C19.72 20.32 20.04 20.16 20.28 20L21.5 20.5C21.64 20.5 21.8 20.5 21.8 20.4L22.84 18.64C22.92 18.56 22.84 18.4 22.76 18.32L21.72 17.5V16.5L22.76 15.68C22.84 15.6 22.92 15.44 22.84 15.36L21.8 13.6C21.8 13.5 21.64 13.5 21.5 13.5L20.28 14C20.04 13.84 19.72 13.68 19.4 13.5L19.24 12.24C19.24 12.08 19.08 12 19 12H17M10 13C7.33 13 2 14.33 2 17V20H11.67C11.39 19.41 11.19 18.77 11.09 18.1H3.9V17C3.9 16.36 7.03 14.9 10 14.9C10.43 14.9 10.87 14.94 11.3 15C11.5 14.36 11.77 13.76 12.12 13.21C11.34 13.08 10.6 13 10 13M18.04 15.5C18.84 15.5 19.5 16.16 19.5 17.04C19.5 17.84 18.84 18.5 18.04 18.5C17.16 18.5 16.5 17.84 16.5 17.04C16.5 16.16 17.16 15.5 18.04 15.5Z"/></svg>
